svgs/pharmeasy.svg

<svg width="24" height="24" viewBox="0 0 24 24" fill="none" xmlns="http://www.w3.org/2000/svg">
<path fill-rule="evenodd" clip-rule="evenodd" d="M13.2207 22.1983C12.7838 22.1752 12.3708 21.938 12.1639 21.4384C11.9571 20.9487 12.0373 20.4717 12.4271 20.0847L14.217 18.3412C14.4168 18.1576 14.44 18.0478 14.2338 17.8508L11.4771 15.1674C11.2702 14.9605 11.157 15.0006 10.974 15.1841L9.18763 16.9276C8.42424 17.6241 7.24784 17.2611 7.04099 16.2711C6.99567 16.0838 7.00049 15.8878 7.05495 15.7029C7.10942 15.518 7.21162 15.3507 7.35127 15.2179L10.331 12.3114C10.4425 12.2004 10.5748 12.1126 10.7203 12.0528C10.8659 11.9931 11.0217 11.9626 11.179 11.9632C11.3364 11.9638 11.492 11.9954 11.6371 12.0563C11.7822 12.1171 11.9138 12.206 12.0245 12.3177L17.1677 17.3308C17.644 17.7973 17.644 18.4938 17.1741 18.9709L14.1944 21.8774C13.9608 22.1039 13.6575 22.2073 13.2213 22.1975L13.2207 22.1983ZM20.5964 8.69647C20.5797 9.97981 20.2467 11.1766 19.5235 12.2362C19.3236 12.5296 19.3736 12.6731 19.61 12.8765C19.9597 13.1762 20.2763 13.5167 20.6034 13.8432C21.1135 14.3667 21.1304 15.0801 20.6604 15.5867C20.1968 16.0701 19.4038 16.1397 18.9036 15.6803L16.6036 13.4372C16.1202 12.9405 16.1835 12.2341 16.7239 11.7043C17.4272 11.0352 17.8812 10.1461 18.0107 9.18406C18.321 6.96073 16.6043 4.78102 14.3471 4.53758C12.8837 4.38068 11.6369 4.79791 10.5872 5.8378L4.28375 11.9808C3.96714 12.2974 3.60057 12.4874 3.14676 12.4339C2.63666 12.3706 2.25672 12.1103 2.08012 11.6107C1.90352 11.1112 2.02313 10.6672 2.39674 10.3042L5.6065 7.17743L9.04633 3.83751C12.8295 0.307616 19.1161 2.11724 20.3966 7.10074C20.5269 7.62295 20.594 8.15894 20.5964 8.69718L20.5964 8.69647Z" fill="black"/>
</svg>

<svg xmlns="http://www.w3.org/2000/svg" width="24" height="24" fill="none" viewBox="0 0 24 24"><path fill="#000" fill-rule="evenodd" d="M13.22 22.198a1.179 1.179 0 0 1-1.056-.76c-.207-.49-.127-.966.263-1.353l1.79-1.744c.2-.183.223-.293.017-.49l-2.757-2.684c-.207-.207-.32-.166-.503.017l-1.786 1.744c-.764.696-1.94.333-2.147-.657a1.098 1.098 0 0 1 .31-1.053l2.98-2.907a1.196 1.196 0 0 1 1.694.007l5.143 5.013c.476.466.476 1.163.006 1.64l-2.98 2.906c-.233.227-.537.33-.973.32v.001m7.376-13.502c-.016 1.284-.35 2.48-1.073 3.54-.2.294-.15.437.087.64.35.3.666.64.993.967.51.524.527 1.237.057 1.744-.463.483-1.256.553-1.756.093l-2.3-2.243c-.484-.496-.42-1.203.12-1.733a4.264 4.264 0 0 0 1.287-2.52c.31-2.223-1.407-4.403-3.664-4.646-1.463-.157-2.71.26-3.76 1.3L4.284 11.98c-.317.316-.683.506-1.137.453-.51-.063-.89-.324-1.067-.823-.176-.5-.057-.944.317-1.307l3.21-3.127 3.44-3.34c3.782-3.53 10.07-1.72 11.35 3.264.13.522.197 1.058.2 1.596" clip-rule="evenodd"/></svg>
